src/icons/blockchains/sui.svg

<svg width="24" height="24" viewBox="0 0 24 24" fill="none" xmlns="http://www.w3.org/2000/svg">
  <rect width="24" height="24" rx="12" fill="#2A4362" />
  <path
    fill-rule="evenodd"
    clip-rule="evenodd"
    d="M16.2019 10.8389L16.2015 10.8395C16.9316 11.5556 17.3678 12.4627 17.3678 13.4493C17.3678 14.4505 16.9185 15.3699 16.1688 16.0909L16.1042 16.153L16.0871 16.0741C16.0726 16.007 16.0554 15.9393 16.0356 15.871C15.6604 14.5812 14.4379 13.4752 12.4259 12.5797C11.0672 11.9766 10.2895 11.2505 10.0853 10.4254C9.95347 9.89191 10.0515 9.35603 10.241 8.89703C10.4304 8.43818 10.7121 8.05374 10.9515 7.82229L10.9517 7.82213L11.7343 7.07336C11.8716 6.94205 12.1285 6.94205 12.2657 7.07336L16.2019 10.8389ZM17.4398 10.0908L17.4399 10.0905L12.1939 5.07187C12.0938 4.97604 11.9062 4.97604 11.8061 5.07187L6.56001 10.0906L6.56016 10.0908L6.54309 10.1074C5.57771 11.0446 5 12.2357 5 13.5323C5 16.552 8.13395 19 12 19C15.8661 19 19 16.552 19 13.5323C19 12.2357 18.4223 11.0447 17.4569 10.1074L17.4398 10.0908ZM7.81524 10.8227L7.81545 10.8225L8.28467 10.3736L8.29886 10.4565C8.3101 10.5221 8.32371 10.5881 8.33987 10.6544C8.64348 11.9007 9.72806 12.9399 11.5413 13.7447C13.1175 14.4466 14.0352 15.2537 14.2997 16.1388C14.41 16.5082 14.4297 16.8717 14.3819 17.1895L14.3789 17.2091L14.3562 17.2178C13.6448 17.4897 12.8451 17.6423 11.9998 17.6423C9.03527 17.6423 6.63188 15.7651 6.63188 13.4493C6.63188 12.455 7.07492 11.5414 7.81524 10.8227Z"
    fill="#FAFAFF"
  />
</svg>

<svg
  xmlns="http://www.w3.org/2000/svg"
  width="24"
  height="24"
  fill="none"
  xmlns:v="https://vecta.io/nano"
>
  <rect width="24" height="24" rx="12" fill="#2a4362" />
  <path
    fill-rule="evenodd"
    d="M16.202 10.839v.001c.73.716 1.166 1.623 1.166 2.61 0 1.001-.449 1.921-1.199 2.642l-.065.062-.017-.079-.052-.203c-.375-1.29-1.598-2.396-3.61-3.291-1.359-.603-2.136-1.329-2.341-2.154-.132-.533-.034-1.069.156-1.528s.471-.843.71-1.075h0l.783-.749a.41.41 0 0 1 .531 0l3.936 3.766zm1.238-.748h0l-5.246-5.019a.3.3 0 0 0-.388 0L6.56 10.091h0l-.017.017C5.578 11.045 5 12.236 5 13.532 5 16.552 8.134 19 12 19s7-2.448 7-5.468c0-1.297-.578-2.488-1.543-3.425l-.017-.017zm-9.625.732h0l.469-.449.014.083.041.198c.304 1.246 1.388 2.285 3.201 3.09 1.576.702 2.494 1.509 2.758 2.394.11.369.13.733.082 1.051l-.003.02-.023.009a6.61 6.61 0 0 1-2.356.424c-2.965 0-5.368-1.877-5.368-4.193 0-.994.443-1.908 1.183-2.627z"
    fill="#fafaff"
  />
</svg>
